X:1
T:Glen Ellyn, 87.87 D
T:Glen Ellyn, 87.87 D
T:Flavil Joseph Hall, 1919
T:Public Domain Courtesy of the Cyber Hymnal™
C:Flavil Joseph Hall, 1919
Z:Public Domain
Z:Courtesy of the Cyber Hymnal™
%%score ( 1 2 ) ( 3 4 )
L:1/8
Q:1/4=100
M:4/4
K:F
V:1 treble 
V:2 treble 
V:3 bass 
V:4 bass 
V:1
 A3 C DEFB | A4 F4 | G3 F EFG^G | A6 z2 | A3 C DEFB | B4 A4 | [EG]3 F [CE][CF][EG][EA] | F6 z2 | %8
 [Fc]3 [Fc] [F=B][Fc][Fd][Fc] | [Fc]4 [FA]4 | [Fc]3 [Fc] [F=B][Fc][Fd][FA] | c6 z2 | %12
 [Fc]3 [FA] [CF]CD[FB] | [FB]4 [FA]4 | [EG]3 F [CE][CF][EG][EA] | F8 |] %16
V:2
 x8 | x8 | x8 | x8 | x8 | x8 | x3 F x4 | F6 x2 | x8 | x8 | x8 | (F4 E2) x2 | x5 CD x | x8 | %14
 x3 F x4 | F8 |] %16
V:3
 C3 A, B,CDD | C4 A,4 | B,3 A, G,A,B,=B, | [F,C]6 z2 | C3 A, B,CDD | D4 C4 | %6
 [C,B,]3 [C,A,] [C,G,][C,A,][C,B,][C,C] | [F,A,]6 z2 | [F,A,]3 [F,A,] [F,^G,][F,A,][F,B,][F,A,] | %9
 [F,A,]4 [F,C]4 | [F,A,]3 [F,A,] [F,^G,][F,A,][F,B,][F,C] | (A,4 G,2) z2 | %12
 [F,A,]3 [F,C] [F,A,][A,,F,][B,,F,][B,,D] | [B,,D]4 [F,C]4 | %14
 [C,B,]3 [C,A,] [C,G,][C,A,][C,B,][C,C] | [F,A,]8 |] %16
V:4
 F,8- | F,8 | C,6 x2 | x8 | F,8- | F,8 | x8 | x8 | x8 | x8 | x8 | C,6 x2 | x8 | x8 | x8 | x8 |] %16

